X:13445
T:Polska fr J\"amtland
S:Christina Eketorp
R:Polska
O:Sweden
M:3/4
A:J\"amtland
K:D
D>F (3ABA F>A|G>A (3BdB G>B\
|1 A>c (3efe c>e|d>e f<d A2 :|2\
A>c e>f (3gec|d2 d4 ::
f2fd ef|g<b b>g ed|c<a aA B>c\
|1 d>A (3FAF D2 :|2 d2 d4 :|


